; generated by PrusaSlicer 2.2.0+ on 2021-02-05 at 07:01:49 UTC

; 

; external perimeters extrusion width = 0.45mm
; perimeters extrusion width = 0.45mm
; infill extrusion width = 0.45mm
; solid infill extrusion width = 0.45mm
; top infill extrusion width = 0.40mm
; support material extrusion width = 0.35mm
; first layer extrusion width = 0.40mm

; external perimeters extrusion width = 0.45mm
; perimeters extrusion width = 0.45mm
; infill extrusion width = 0.45mm
; solid infill extrusion width = 0.45mm
; top infill extrusion width = 0.40mm
; support material extrusion width = 0.35mm
; first layer extrusion width = 0.40mm

M73 P0 R7
M201 X9000 Y9000 Z500 E10000 ; sets maximum accelerations, mm/sec^2
M203 X500 Y500 Z12 E120 ; sets maximum feedrates, mm/sec
M204 P1500 R1500 T1500 ; sets acceleration (P, T) and retract acceleration (R), mm/sec^2
M205 X10.00 Y10.00 Z0.20 E2.50 ; sets the jerk limits, mm/sec
M205 S0 T0 ; sets the minimum extruding and travel feed rate, mm/sec
M107
M92 E101 ;Calibrate eSteps
G28 ; home all axes
T0
G1 Z5 F5000 ; lift nozzle

M190 S40; 
M140 S60; Start the bed warming
M104 S210 T1; set nozzle temp for Extruder 2
M109 S210 T0; set nozzle temp and wait for temp to be reached
M190 S60; set bed temp and wait for temp to be reached

;In Absolute 
;T0 
;G92 E0; reset extruder0
;G1 E20 G1 E10; prime and retract Extruder0
;T1 
;G92 E0; reset extruder1
;G1 E20 G1 E10; prime and retract Extruder1
;M117 PurgeLine...; put message on display

T0;
;;M28 ;Relative Mode
T0 G90
G1 Z2.0 F3000 ;Move Z Axis up
G1 X5 Y10 Z0.28 F5000.0 ;Move to start position
G1 X5 Y200.0 Z0.28 F1500.0 E15 ;Draw the first line
M73 P1 R7
G1 X5.4 Y200.0 Z0.28 F5000.0 ;Move to side a little
G1 X5.4 Y10 Z0.28 F1500.0 E30 ;Draw the second line
;T0 G92 E0; reset extruder0

T1;
T1 G90
;T1 G92 E0; reset extruder0
G1 Z2.0 F3000 ;Move Z Axis up
G1 X305 Y10 Z0.28 F5000.0 ;Move to start position
G1 X305 Y200.0 Z0.28 F1500.0 E45 ;Draw the first line
G1 X305.4 Y200.0 Z0.28 F5000.0 ;Move to side a little
G1 X305.4 Y10 Z0.28 F1500.0 E60 ;Draw the second line
T1 G92 E0; reset extruder1
T0 G92 E0; reset extruder0
T0
;;G1 E-1 F4500; Retract 
M117 Printing...; put message on display
G21 ; set units to millimeters
G90 ; use absolute coordinates
M82 ; use absolute distances for extrusion
G92 E0
T0
G92 E0
; Filament gcode
G1 Z0.360 F12000.000
G1 E-1.20000 F2400.00000
G92 E0
G1 X121.714 Y122.303 F12000.000
G1 E1.20000 F2400.00000
G1 F2100.000
G1 X122.762 Y121.339 E1.24226
G1 X123.975 Y120.608 E1.28432
G1 X125.316 Y120.132 E1.32657
G1 X126.726 Y119.934 E1.36883
G1 X183.007 Y119.929 E3.03988
G1 X184.222 Y120.035 E3.07611
G1 X185.402 Y120.349 E3.11235
G1 X186.510 Y120.861 E3.14859
G1 X187.513 Y121.556 E3.18482
G1 X188.382 Y122.413 E3.22106
G1 X189.090 Y123.407 E3.25729
G1 X189.617 Y124.507 E3.29353
G1 X189.947 Y125.682 E3.32977
G1 X190.071 Y126.956 E3.36775
G1 X190.051 Y143.532 E3.85991
G1 X189.872 Y144.666 E3.89401
G1 X189.512 Y145.756 E3.92811
G1 X188.976 Y146.780 E3.96240
G1 X188.286 Y147.697 E3.99650
G1 X147.986 Y188.014 E5.68903
G1 X146.704 Y189.024 E5.73749
G1 X145.927 Y189.437 E5.76361
G1 X145.105 Y189.751 E5.78973
G1 X144.244 Y189.961 E5.81605
G1 X143.370 Y190.062 E5.84217
G1 X126.790 Y190.068 E6.33446
G1 X125.565 Y189.924 E6.37109
G1 X124.389 Y189.572 E6.40752
G1 X123.287 Y189.018 E6.44414
G1 X122.303 Y188.286 E6.48057
G1 X121.308 Y187.196 E6.52438
G1 X120.561 Y185.923 E6.56819
G1 X120.095 Y184.524 E6.61200
G1 X119.929 Y183.064 E6.65561
G1 X119.932 Y126.790 E8.32647
G1 X120.076 Y125.565 E8.36309
G1 X120.428 Y124.389 E8.39952
G1 X120.982 Y123.287 E8.43615
G1 X121.679 Y122.351 E8.47079
G1 X121.965 Y122.565 F12000.000
G1 F2100.000
G1 X122.989 Y121.616 E8.51226
G1 X124.146 Y120.923 E8.55230
G1 X125.418 Y120.475 E8.59233
G1 X126.754 Y120.290 E8.63237
G1 X183.006 Y120.286 E10.30259
G1 X184.166 Y120.388 E10.33714
G1 X185.290 Y120.688 E10.37169
G1 X186.345 Y121.178 E10.40624
G1 X187.300 Y121.843 E10.44079
G1 X188.126 Y122.663 E10.47534
G1 X188.797 Y123.613 E10.50989
G1 X189.295 Y124.665 E10.54444
G1 X189.604 Y125.787 E10.57898
G1 X189.714 Y126.965 E10.61410
G1 X189.696 Y143.492 E11.10483
G1 X189.526 Y144.579 E11.13749
G1 X189.180 Y145.623 E11.17014
G1 X188.669 Y146.597 E11.20280
G1 X188.006 Y147.474 E11.23545
G1 X147.734 Y187.761 E12.92678
G1 X146.536 Y188.708 E12.97211
G1 X145.792 Y189.106 E12.99718
G1 X145.003 Y189.408 E13.02225
G1 X144.183 Y189.609 E13.04732
G1 X143.344 Y189.705 E13.07240
G1 X126.808 Y189.711 E13.56337
G1 X125.640 Y189.575 E13.59830
G1 X124.519 Y189.239 E13.63304
G1 X123.468 Y188.710 E13.66797
G1 X122.526 Y188.006 E13.70289
G1 X121.589 Y186.975 E13.74426
G1 X120.882 Y185.767 E13.78581
G1 X120.443 Y184.445 E13.82717
G1 X120.286 Y183.054 E13.86872
G1 X120.289 Y126.808 E15.53875
G1 X120.425 Y125.640 E15.57367
G1 X120.761 Y124.519 E15.60841
G1 X121.290 Y123.468 E15.64334
G1 X121.929 Y122.613 E15.67504
G1 X123.214 Y121.893 F12000.000
G1 F2100.000
G1 X124.309 Y121.241 E15.71289
G1 X125.518 Y120.818 E15.75092
G1 X126.781 Y120.647 E15.78877
G1 X183.006 Y120.643 E17.45816
G1 X184.109 Y120.740 E17.49104
G1 X185.179 Y121.028 E17.52392
G1 X186.182 Y121.497 E17.55680
G1 X187.089 Y122.132 E17.58967
G1 X187.871 Y122.916 E17.62255
G1 X188.506 Y123.823 E17.65543
G1 X188.972 Y124.821 E17.68813
G1 X189.259 Y125.890 E17.72101
G1 X189.357 Y126.968 E17.75315
G1 X189.341 Y143.454 E18.24264
G1 X189.181 Y144.487 E18.27368
G1 X188.851 Y145.486 E18.30490
G1 X188.364 Y146.411 E18.33593
G1 X187.729 Y147.249 E18.36715
G1 X147.482 Y187.508 E20.05738
G1 X146.361 Y188.396 E20.09983
G1 X145.654 Y188.777 E20.12367
G1 X144.899 Y189.067 E20.14770
G1 X144.119 Y189.258 E20.17154
G1 X143.315 Y189.349 E20.19557
G1 X126.819 Y189.355 E20.68534
G1 X125.713 Y189.226 E20.71840
G1 X124.641 Y188.903 E20.75165
G1 X123.642 Y188.398 E20.78490
G1 X122.751 Y187.729 E20.81796
G1 X121.867 Y186.751 E20.85710
G1 X121.204 Y185.612 E20.89624
G1 X120.790 Y184.360 E20.93537
G1 X120.643 Y183.050 E20.97451
G1 X120.645 Y126.826 E22.64390
G1 X120.774 Y125.713 E22.67715
G1 X121.097 Y124.641 E22.71039
G1 X121.602 Y123.642 E22.74364
G1 X122.271 Y122.751 E22.77671
G1 X123.170 Y121.934 E22.81277
G1 E21.61277 F2400.00000
G92 E0
G1 X181.886 Y141.886 F12000.000
G1 E1.20000 F2400.00000
G1 F2100.000
G1 X167.421 Y141.886 E1.62949
G1 X167.421 Y147.835 E1.80613
G1 X141.886 Y147.835 E2.56429
G1 X141.886 Y181.886 E3.57530
G1 X128.114 Y181.886 E3.98420
G1 X128.114 Y128.114 E5.58075
G1 X181.886 Y128.114 E7.17730
G1 X181.886 Y141.826 E7.58442
G1 E6.38442 F2400.00000
G92 E0
G1 X167.778 Y142.243 F12000.000
G1 E1.20000 F2400.00000
G1 F2100.000
G1 X167.778 Y148.192 E1.37664
G1 X142.243 Y148.192 E2.13480
G1 X142.243 Y182.243 E3.14581
G1 X127.757 Y182.243 E3.57592
G1 X127.757 Y127.757 E5.19367
G1 X182.243 Y127.757 E6.81143
M73 P15 R6
G1 X182.243 Y142.243 E7.24153
G1 X167.838 Y142.243 E7.66924
G1 X168.135 Y142.600 F12000.000
G1 F2100.000
G1 X168.135 Y148.549 E7.84588
G1 X142.600 Y148.549 E8.60404
G1 X142.600 Y182.600 E9.61505
G1 X127.400 Y182.600 E10.06636
G1 X127.400 Y127.400 E11.70532
G1 X182.600 Y127.400 E13.34428
G1 X182.600 Y142.600 E13.79559
G1 X168.195 Y142.600 E14.22330
G1 X167.749 Y142.707 F12000.000
G1 E13.02330 F2400.00000
G92 E0
G1 X128.944 Y181.779 F12000.000
G1 E1.20000 F2400.00000
G1 F2100.000
G1 X128.382 Y181.217 E1.22363
G1 X128.382 Y180.711 E1.23866
G1 X129.289 Y181.618 E1.27678
G1 X129.794 Y181.618 E1.29181
G1 X128.382 Y180.206 E1.35120
G1 X128.382 Y179.700 E1.36623
G1 X130.300 Y181.618 E1.44687
G1 X130.806 Y181.618 E1.46190
G1 X128.382 Y179.194 E1.56379
G1 X128.382 Y178.689 E1.57882
G1 X131.311 Y181.618 E1.70197
G1 X131.817 Y181.618 E1.71700
G1 X128.382 Y178.183 E1.86140
G1 X128.382 Y177.678 E1.87643
G1 X132.322 Y181.618 E2.04209
G1 X132.828 Y181.618 E2.05712
G1 X128.382 Y177.172 E2.24404
G1 X128.382 Y176.666 E2.25907
G1 X133.334 Y181.618 E2.46724
G1 X133.839 Y181.618 E2.48227
G1 X128.382 Y176.161 E2.71170
G1 X128.382 Y175.655 E2.72673
G1 X134.345 Y181.618 E2.97741
G1 X134.850 Y181.618 E2.99244
G1 X128.382 Y175.150 E3.26438
G1 X128.382 Y174.644 E3.27941
G1 X135.356 Y181.618 E3.57260
G1 X135.862 Y181.618 E3.58763
G1 X128.382 Y174.138 E3.90208
G1 X128.382 Y173.633 E3.91711
G1 X136.367 Y181.618 E4.25281
G1 X136.873 Y181.618 E4.26784
G1 X128.382 Y173.127 E4.62480
G1 X128.382 Y172.622 E4.63983
G1 X137.378 Y181.618 E5.01805
G1 X137.884 Y181.618 E5.03308
G1 X128.382 Y172.116 E5.43255
G1 X128.382 Y171.610 E5.44758
G1 X138.390 Y181.618 E5.86830
G1 X138.895 Y181.618 E5.88333
G1 X128.382 Y171.105 E6.32531
G1 X128.382 Y170.599 E6.34034
G1 X139.401 Y181.618 E6.80358
G1 X139.906 Y181.618 E6.81861
G1 X128.382 Y170.094 E7.30310
G1 X128.382 Y169.588 E7.31813
G1 X140.412 Y181.618 E7.82388
G1 X140.918 Y181.618 E7.83891
G1 X128.382 Y169.082 E8.36591
G1 X128.382 Y168.577 E8.38094
G1 X141.423 Y181.618 E8.92920
G1 X141.618 Y181.618 E8.93499
G1 X141.618 Y181.307 E8.94423
G1 X128.382 Y168.071 E9.50068
G1 X128.382 Y167.566 E9.51571
G1 X141.618 Y180.802 E10.07216
G1 X141.618 Y180.296 E10.08719
G1 X128.382 Y167.060 E10.64364
G1 X128.382 Y166.554 E10.65867
G1 X141.618 Y179.791 E11.21512
G1 X141.618 Y179.285 E11.23015
G1 X128.382 Y166.049 E11.78660
G1 X128.382 Y165.543 E11.80163
G1 X141.618 Y178.779 E12.35808
G1 X141.618 Y178.274 E12.37311
G1 X128.382 Y165.038 E12.92956
G1 X128.382 Y164.532 E12.94459
G1 X141.618 Y177.768 E13.50104
G1 X141.618 Y177.263 E13.51607
G1 X128.382 Y164.026 E14.07252
G1 X128.382 Y163.521 E14.08755
G1 X141.618 Y176.757 E14.64401
G1 X141.618 Y176.251 E14.65904
G1 X128.382 Y163.015 E15.21549
G1 X128.382 Y162.510 E15.23052
G1 X141.618 Y175.746 E15.78697
G1 X141.618 Y175.240 E15.80200
G1 X128.382 Y162.004 E16.35845
G1 X128.382 Y161.498 E16.37348
G1 X141.618 Y174.735 E16.92993
G1 X141.618 Y174.229 E16.94496
G1 X128.382 Y160.993 E17.50141
G1 X128.382 Y160.487 E17.51644
G1 X141.618 Y173.723 E18.07289
G1 X141.618 Y173.218 E18.08792
G1 X128.382 Y159.982 E18.64437
G1 X128.382 Y159.476 E18.65940
G1 X141.618 Y172.712 E19.21585
G1 X141.618 Y172.207 E19.23088
G1 X128.382 Y158.971 E19.78733
G1 X128.382 Y158.465 E19.80236
G1 X141.618 Y171.701 E20.35881
G1 X141.618 Y171.195 E20.37384
G1 X128.382 Y157.959 E20.93029
G1 X128.382 Y157.454 E20.94532
G1 X141.618 Y170.690 E21.50177
G1 X141.618 Y170.184 E21.51680
G1 X128.382 Y156.948 E22.07325
G1 X128.382 Y156.443 E22.08828
G1 X141.618 Y169.679 E22.64474
G1 X141.618 Y169.173 E22.65977
G1 X128.382 Y155.937 E23.21622
G1 X128.382 Y155.431 E23.23125
G1 X141.618 Y168.667 E23.78770
G1 X141.618 Y168.162 E23.80273
G1 X128.382 Y154.926 E24.35918
G1 X128.382 Y154.420 E24.37421
G1 X141.618 Y167.656 E24.93066
G1 X141.618 Y167.151 E24.94569
G1 X128.382 Y153.915 E25.50214
G1 X128.382 Y153.409 E25.51717
G1 X141.618 Y166.645 E26.07362
G1 X141.618 Y166.139 E26.08865
G1 X128.382 Y152.903 E26.64510
G1 X128.382 Y152.398 E26.66013
G1 X141.618 Y165.634 E27.21658
G1 X141.618 Y165.128 E27.23161
G1 X128.382 Y151.892 E27.78806
G1 X128.382 Y151.387 E27.80309
G1 X141.618 Y164.623 E28.35954
G1 X141.618 Y164.117 E28.37457
G1 X128.382 Y150.881 E28.93102
G1 X128.382 Y150.375 E28.94605
G1 X141.618 Y163.611 E29.50250
G1 X141.618 Y163.106 E29.51753
G1 X128.382 Y149.870 E30.07398
G1 X128.382 Y149.364 E30.08901
G1 X141.618 Y162.600 E30.64547
G1 X141.618 Y162.095 E30.66050
G1 X128.382 Y148.859 E31.21695
G1 X128.382 Y148.353 E31.23198
G1 X141.618 Y161.589 E31.78843
G1 X141.618 Y161.083 E31.80346
G1 X128.382 Y147.847 E32.35991
G1 X128.382 Y147.342 E32.37494
G1 X141.618 Y160.578 E32.93139
G1 X141.618 Y160.072 E32.94642
G1 X128.382 Y146.836 E33.50287
G1 X128.382 Y146.331 E33.51790
G1 X141.618 Y159.567 E34.07435
G1 X141.618 Y159.061 E34.08938
G1 X128.382 Y145.825 E34.64583
G1 X128.382 Y145.319 E34.66086
G1 X141.618 Y158.556 E35.21731
G1 X141.618 Y158.050 E35.23234
G1 X128.382 Y144.814 E35.78879
G1 X128.382 Y144.308 E35.80382
G1 X141.618 Y157.544 E36.36027
G1 X141.618 Y157.039 E36.37530
G1 X128.382 Y143.803 E36.93175
G1 X128.382 Y143.297 E36.94678
G1 X141.618 Y156.533 E37.50323
G1 X141.618 Y156.028 E37.51826
G1 X128.382 Y142.791 E38.07471
G1 X128.382 Y142.286 E38.08974
G1 X141.618 Y155.522 E38.64620
G1 X141.618 Y155.016 E38.66123
G1 X128.382 Y141.780 E39.21768
G1 X128.382 Y141.275 E39.23271
G1 X141.618 Y154.511 E39.78916
G1 X141.618 Y154.005 E39.80419
G1 X128.382 Y140.769 E40.36064
G1 X128.382 Y140.263 E40.37567
G1 X141.618 Y153.500 E40.93212
G1 X141.618 Y152.994 E40.94715
G1 X128.382 Y139.758 E41.50360
G1 X128.382 Y139.252 E41.51863
G1 X141.618 Y152.488 E42.07508
G1 X141.618 Y151.983 E42.09011
G1 X128.382 Y138.747 E42.64656
G1 X128.382 Y138.241 E42.66159
G1 X141.618 Y151.477 E43.21804
G1 X141.618 Y150.972 E43.23307
G1 X128.382 Y137.735 E43.78952
G1 X128.382 Y137.230 E43.80455
G1 X141.618 Y150.466 E44.36100
G1 X141.618 Y149.960 E44.37603
G1 X128.382 Y136.724 E44.93248
G1 X128.382 Y136.219 E44.94751
G1 X141.618 Y149.455 E45.50396
G1 X141.618 Y148.949 E45.51899
G1 X128.382 Y135.713 E46.07545
G1 X128.382 Y135.208 E46.09048
G1 X141.618 Y148.444 E46.64693
G1 X141.618 Y147.938 E46.66196
G1 X128.382 Y134.702 E47.21841
G1 X128.382 Y134.196 E47.23344
G1 X141.753 Y147.567 E47.79556
G1 X142.258 Y147.567 E47.81059
G1 X128.382 Y133.691 E48.39396
G1 X128.382 Y133.185 E48.40899
G1 X142.764 Y147.567 E49.01362
G1 X143.270 Y147.567 E49.02865
G1 X128.382 Y132.680 E49.65454
G1 X128.382 Y132.174 E49.66957
G1 X143.775 Y147.567 E50.31671
G1 X144.281 Y147.567 E50.33174
G1 X128.382 Y131.668 E51.00014
G1 X128.382 Y131.163 E51.01517
G1 X144.786 Y147.567 E51.70482
G1 X145.292 Y147.567 E51.71985
G1 X128.382 Y130.657 E52.43076
G1 X128.382 Y130.152 E52.44579
G1 X145.798 Y147.567 E53.17795
G1 X146.303 Y147.567 E53.19298
G1 X128.382 Y129.646 E53.94640
M73 P29 R5
G1 X128.382 Y129.140 E53.96143
G1 X146.809 Y147.567 E54.73610
G1 X147.314 Y147.567 E54.75113
G1 X128.382 Y128.635 E55.54706
G1 X128.382 Y128.382 E55.55458
G1 X128.635 Y128.382 E55.56209
G1 X147.820 Y147.567 E56.36865
G1 X148.326 Y147.567 E56.38368
G1 X129.140 Y128.382 E57.19024
G1 X129.646 Y128.382 E57.20527
G1 X148.831 Y147.567 E58.01183
G1 X149.337 Y147.567 E58.02686
G1 X130.152 Y128.382 E58.83342
G1 X130.657 Y128.382 E58.84845
G1 X149.842 Y147.567 E59.65500
G1 X150.348 Y147.567 E59.67003
G1 X131.163 Y128.382 E60.47659
G1 X131.668 Y128.382 E60.49162
G1 X150.854 Y147.567 E61.29818
G1 X151.359 Y147.567 E61.31321
G1 X132.174 Y128.382 E62.11977
G1 X132.679 Y128.382 E62.13480
G1 X151.865 Y147.567 E62.94136
G1 X152.370 Y147.567 E62.95639
G1 X133.185 Y128.382 E63.76295
G1 X133.691 Y128.382 E63.77798
G1 X152.876 Y147.567 E64.58453
G1 X153.382 Y147.567 E64.59956
G1 X134.196 Y128.382 E65.40612
G1 X134.702 Y128.382 E65.42115
G1 X153.887 Y147.567 E66.22771
G1 X154.393 Y147.567 E66.24274
G1 X135.207 Y128.382 E67.04930
G1 X135.713 Y128.382 E67.06433
G1 X154.898 Y147.567 E67.87089
G1 X155.404 Y147.567 E67.88592
G1 X136.219 Y128.382 E68.69248
G1 X136.724 Y128.382 E68.70751
G1 X155.910 Y147.567 E69.51407
G1 X156.415 Y147.567 E69.52910
G1 X137.230 Y128.382 E70.33565
G1 X137.735 Y128.382 E70.35068
G1 X156.921 Y147.567 E71.15724
G1 X157.426 Y147.567 E71.17227
G1 X138.241 Y128.382 E71.97883
G1 X138.747 Y128.382 E71.99386
G1 X157.932 Y147.567 E72.80042
G1 X158.438 Y147.567 E72.81545
G1 X139.252 Y128.382 E73.62201
G1 X139.758 Y128.382 E73.63704
G1 X158.943 Y147.567 E74.44360
G1 X159.449 Y147.567 E74.45863
G1 X140.263 Y128.382 E75.26518
G1 X140.769 Y128.382 E75.28021
G1 X159.954 Y147.567 E76.08677
G1 X160.460 Y147.567 E76.10180
G1 X141.275 Y128.382 E76.90836
G1 X141.780 Y128.382 E76.92339
G1 X160.966 Y147.567 E77.72995
G1 X161.471 Y147.567 E77.74498
G1 X142.286 Y128.382 E78.55154
G1 X142.791 Y128.382 E78.56657
G1 X161.977 Y147.567 E79.37313
G1 X162.482 Y147.567 E79.38816
G1 X143.297 Y128.382 E80.19472
G1 X143.803 Y128.382 E80.20975
G1 X162.988 Y147.567 E81.01630
G1 X163.493 Y147.567 E81.03133
G1 X144.308 Y128.382 E81.83789
G1 X144.814 Y128.382 E81.85292
G1 X163.999 Y147.567 E82.65948
G1 X164.505 Y147.567 E82.67451
G1 X145.319 Y128.382 E83.48107
G1 X145.825 Y128.382 E83.49610
G1 X165.010 Y147.567 E84.30266
G1 X165.516 Y147.567 E84.31769
G1 X146.331 Y128.382 E85.12425
G1 X146.836 Y128.382 E85.13928
